X: 16256
T: Greig's Pipes
R: reel
M: 4/4
K: Amajor
|:cAcA cAA2|cAcA BAFA|cccB ABcA|B2{c}BA E2A2:|
A2ce eAcA|A2cA BAFB|eece fecA|B2cA BAFB|
A2cA eAcA|e2cA BAFB|eece fecA|B2{c}BA E2A2|

